X: 199
T:The Warlock
M:4/4
R:Strathspey
F:http://blackrosetheband.googlepages.com/ABCTUNES.ABC May 2009
K:D
(3EFG|A>B A>F D2 (3DEF|G>E F>D {E}e2 e>f|g>e f>d e2 (3edF|E2 G>F E2 (3EFG|
(3AFB A>F D2 (3DEF|G>E F>D {E}e2 e>f|g>e f>d e2 B2||
(3efg B>g e<B g>e|(3fga d>a f<d a>f|(3efg B>g e<B g>e|d>B A<F E2 E>B|
(3efg B>g e<B g>e|(3fga d>a f<d a>f|e>g f>e d>B A>F|G>B A>F DE E2||
|:B<E G>F E2 (3EFG|A>B A>F D2 (3DEF|G>E F>D {E}e2 e>f|1g>e f<d e2 e2:|2 g>e f<d e2 B2||
(3efg B>g e<B g>e|(3fga d>a f<d a>f|(3efg B>g e<B g>e|d>B A<F E2 E>B|
(3efg B>g e<B g>e|(3fga d>a f<d a>f|e>g f>e d>B A>F|G>B A>F DE E2||

